X: 62
T: No_66_Song_of_Snake_Dance_(b).krn
N: Derived from No_66_Song_of_Snake_Dance_(b).krn
%%abc-version 2.0
%%abcx-abcm2ps-target-version 5.9.1 (29 Sep 2008)
%%abc-creator hum2abc beta
%%abcx-conversion-date 2019/03/15 08:27:55
%%humdrum-veritas 2129719723
%%humdrum-veritas-data 2952800991
%%linebreak <none>
%%barnumbers 0
L: 1/8
M: 2/4
%%staves {1 2}
V: 1 clef=bass
V: 2 clef=bass
K: Ab
[V:1] [K:clef=bass][M:2/4]F,C C/C/A,/ z/ | 
[V:2] [K:clef=bass][M:2/4]G,,2G,,2 | 
[V:1] [M:3/4]C4B,/ z3/ | 
[V:2] [M:3/4]G,,2G,,2G,,2 | 
[V:1] [M:2/4]B,C C/C/A,/ z/ | 
[V:2] [M:2/4]G,,2G,,2 | 
[V:1] B,B, CA, | 
[V:2] G,,2G,,2 | 
[V:1] [M:3/8]F,F,C, | 
[V:2] [M:3/8]G,,2G,,- | 
[V:1] [M:5/8]F,F,/ z/ F,G,F, | 
[V:2] [M:5/8]G,,G,,2G,,2 | 
[V:1] [M:7/8]F,4-F,2C, | 
[V:2] [M:7/8]G,,2G,,2G,,2G,,- | 
[V:1] [M:5/8]G,G,G,G,F, | 
[V:2] [M:5/8]G,,G,,2G,,2 | 
[V:1] [M:6/8]D,D,C, D,D,C, | 
[V:2] [M:6/8]G,,2G,,2G,,2 | 
[V:1] C,4z2 | 
[V:2] G,,2G,,2G,,2 | 
[V:1]  [K:F] [M:2/4]A,G, G,/G,/F, | 
[V:2]  [K:F] [M:2/4]G,,2G,,2 | 
[V:1] [M:5/8]A,G,G,/G,/F,C, | 
[V:2] [M:5/8]G,,2G,,2G,,- | 
[V:1] F,F,/ z/ F,G,F, | 
[V:2] G,,G,,2G,,2 | 
[V:1] [M:3/4]F,4z2 ]|:  
[V:2] [M:3/4]G,,2G,,2G,,2 ]|:  
[V:1] [M:2/4]C/CC/ D/C/A,/ z/ | 
[V:2] [M:2/4]G,,2G,,2 | 
[V:1] C/CC/ D/C/A,/ z/ | 
[V:2] G,,2G,,2 | 
[V:1] A,/G,3/ A,/G,/F,/ z/ | 
[V:2] G,,2G,,2 | 
[V:1] [M:5/8]A,G,G,G,F,/ z/ | 
[V:2] [M:5/8]G,,2G,,2G,,- | 
[V:1] G,G,B,G,G, | 
[V:2] G,,G,,2G,,2 | 
[V:1] [M:2/4]C,C, C,C, | 
[V:2] [M:2/4]G,,2G,,2 | 
[V:1] C, z G,/F,3/ | 
[V:2] G,,2G,,2 | 
[V:1] [M:3/4]F,F,- F,F, F, z | 
[V:2] [M:3/4]G,,2G,,2G,,2 | 
[V:1] [M:2/4]G,F, F,/F,3/ | 
[V:2] [M:2/4]G,,2G,,2 | 
[V:1] F,/F,/F, F, z | 
[V:2] G,,2G,,2 | 
[V:1] G,F, F,/F,3/ | 
[V:2] G,,2G,,2 | 
[V:1] F,/F,/F, F, z :|]  
[V:2] G,,2G,,2 :|]  



